lib/icons/download.svg

<svg width="17" height="16" viewBox="0 0 17 16" fill="none" xmlns="http://www.w3.org/2000/svg">
<path fill-rule="evenodd" clip-rule="evenodd" d="M7.52699 0C7.25085 0 7.02699 0.223858 7.02699 0.5V6.95931H4.5088C4.31062 6.95931 4.13115 7.07636 4.05124 7.25772C3.97134 7.43908 4.00609 7.65051 4.13984 7.79675L8.73274 12.8186C8.82874 12.9236 8.96491 12.9827 9.10715 12.9811C9.24938 12.9796 9.38423 12.9175 9.47792 12.8105L13.874 7.78864C14.0032 7.64101 14.0342 7.43143 13.9531 7.25275C13.872 7.07407 13.694 6.95931 13.4978 6.95931H11.1764V0.5C11.1764 0.223858 10.9526 0 10.6764 0H7.52699ZM8.02699 7.45931V1H10.1764V7.45931C10.1764 7.73545 10.4003 7.95931 10.6764 7.95931H12.3956L9.09354 11.7314L5.64368 7.95931H7.52699C7.80314 7.95931 8.02699 7.73545 8.02699 7.45931ZM1.99609 10.3949C1.99609 10.1188 1.77224 9.89489 1.49609 9.89489C1.21995 9.89489 0.996094 10.1188 0.996094 10.3949V14.4966C0.996094 15.325 1.66767 15.9966 2.49609 15.9966H15.5C16.3284 15.9966 17 15.325 17 14.4966V10.3949C17 10.1188 16.7761 9.89489 16.5 9.89489C16.2239 9.89489 16 10.1188 16 10.3949V14.4966C16 14.7727 15.7761 14.9966 15.5 14.9966H2.49609C2.21995 14.9966 1.99609 14.7727 1.99609 14.4966V10.3949Z" fill="#7A859E"/>
</svg>

<svg width="17" height="16" fill="none" xmlns="http://www.w3.org/2000/svg"><path fill-rule="evenodd" clip-rule="evenodd" d="M7.527 0a.5.5 0 0 0-.5.5v6.46H4.509a.5.5 0 0 0-.37.837l4.594 5.022a.5.5 0 0 0 .745-.009l4.396-5.021a.5.5 0 0 0-.376-.83h-2.322V.5a.5.5 0 0 0-.5-.5H7.527Zm.5 7.46V1h2.15v6.46a.5.5 0 0 0 .5.5h1.719L9.094 11.73 5.644 7.96h1.883a.5.5 0 0 0 .5-.5Zm-6.03 2.935a.5.5 0 0 0-1 0v4.102a1.5 1.5 0 0 0 1.5 1.5H15.5a1.5 1.5 0 0 0 1.5-1.5v-4.102a.5.5 0 0 0-1 0v4.102a.5.5 0 0 1-.5.5H2.496a.5.5 0 0 1-.5-.5v-4.102Z" fill="#7A859E"/></svg>
